X:1
T:James Gibb editions
T:Quanto sia liet'il giorno Verdelot
T:#
%%score [ 1 2 3 4 ]
L:1/8
Q:1/4=160
M:none
K:F
V:1 treble nm="Soprano" snm="S"
V:2 treble nm="Alto" snm="A"
V:3 treble-8 nm="Tenor" snm="T"
V:4 bass nm="Bass" snm="B"
V:1
"^Phillipe Verdelot\n(1485-1552)""^Quanto sia liet'il giorno""^Niccolò Machiavelli\n(1469-1527)" z8 G8 | %1
w: Quan-|
 B4 A4 B6 c2 | d4 d4 z8 | z4 d4 d4 d4 | c4 A4 B8 | A8 z8 | z8 z4 A4 | B4 B4 c4 c4 | d12 c4 | %9
w: to sia liet' il|gior- no,|nel qual le|co- se~~an- ti-|che|Son|hor da voi di-|mostr' e|
 B4 A8 (G4- | G4 ^F4) G8 | z4 G4 B4 A4 | B6 c2 d4 d4 | z8 z4 d4 | d4 d4 c4 A4 | B8 A8 | z16 | %17
w: ce- le- bra\-|* * te:|Si ve- de|per- ch'~~in- tor- no|tut-|te le gen- ti~~an-|ti- che||
 z4 A4 B4 B4 | c4 c4 d8- | d4 c4 B4 A4- | A4 (G4- G4 ^F4) | G8 z4 A4 | A4 A4 A4 A4 | G8 ^F8 | %24
w: Si son' in|que- sta par\-|* te ra- du\-|* na\- * *|te: Noi|che la nostr' e-|ta- te|
 z4 A4 A4 A4 | B4 B4 c8 | A8 G4 ^F4 | G8 ^F8 | c8 B4 A4 | A4 G4 A4 A4 | z4 A4 c8 | A8 z8 | z8 z8 | %33
w: nei bo- chi~~et|nel- le sel-|ve con- su-|ma- te,|Ve- nut' an-|chor qui sia- mo,|io nym-|pha,||
 z4 d4 c4 d4 | B4 c4 (d2 c2 B2 A2) | G4 (c2 B2 A2 G2 F4) | (B2 A2 G2 F2 E2 ^F2 G4- | G4 ^F4 G4 G4 | %38
w: Et giam can-|tan- do~~in- sie\- * * *|me i * * * *|no\- * * * * * *|* stri~a- mo- ri,|
 z4 d4 c4 d4 | B4 c4 (d2 c2 B2 A2) | G4 c2 B2 A2 G2 F4) | (B2 A2 G2 F2 E2 ^F2) G4- | G4 ^F4 G8- | %43
w: Et giam can-|tan- do~~in- sie\- * * *|me i * * * *|no\- * * * * * stri|* a- mo\-|
 G8 G8- | G16 | G16 |] %46
w: * ri.|||
V:2
 G8 B6 A2 | G4 ^F4 G8 | D8- D8 | z4 D4 F4 F4 | E4 F4 G8 | F8 z8 | z8 z4 F4 | G4 G4 A4 A4 | B12 A4 | %9
w: Quan- to sia|liet' il gior-|no, *|nel qual le|co- se~~an- ti-|che|Son|hor da voi di-|mostr' e|
 G4 =E4 (F2 E2 D2 C2 | D8) D4 G4 | B6 A2 G4 ^F4 | G8 D8- | D8 z4 D4 | F4 F4 E4 F4 | G8 F8 | z16 | %17
w: ce- le- bra\- * * *|* te: Si|ve- de per- ch'~~in-|tor- no|* tut-|te le gen- ti~~an-|ti- che||
 z4 F4 G4 G4 | A4 A4 B8- | B4 A4 G4 =E4 | (F2 E2 D2 C2 D8) | D8 z4 F4 | F4 F4 F4 F4 | D8 D8 | %24
w: Si son' in|que- sta par\-|* te ra- du-|na\- * * * *|te: Noi|che la nostr' e-|ta- te|
 z4 ^F4 F4 F4 | G4 G4 A8 | F8 _E4 D4- | D4 C4 D8 | A8 G4 E4 | F4 (E2 D2) C8 | F8 z8 | %31
w: nei bo- chi~~et|nel- le sel-|ve con- su\-|* ma- te,|Ve- nut' an-|chor qui * sia-|mo,|
 z4 F4 _E4 D4- | D4 C4 D8 | z4 A4 A4 F4 | G4 E4 F4 (G4- | G2 F2 E2 D2) C4 (F4- | F2 E2 D4) C8 | %37
w: e noi pa\-|* sto- ri,|Et giam can-|tan- do~~in- sie- me|* * * * i no\-|* * * stri~~a-|
 D8 D8 | z4 A4 A4 F4 | G4 E4 ^F4 (G4- | G2 F2 E2 D2) C4 (F4- | F2 E2 D4) C8 | D8 (D6 C2 | %43
w: mo- ri,|Et giam can-|tan- do~~in- sie- me|* * * * i. no\-|* * * stri|a- mo\- *|
 D4 _E8 D2 C2 | D4 _E8 D4 | _E8 D8) |] %46
w: ||* ri.|
V:3
 z8 z8 | z8 z8 | G8 B4 A4 | B6 c2 d4 d4 | z8 z4 d4 | d4 f4 e4 f4 | d8 c4 d4 | d4 d4 f4 f4 | %8
w: ||Quan- to sia|liet' il gior- no,|nel|qual le co- se~~an-|ti- che Son|hor da voi di-|
 f8 (f6 _e2 | d4) c8 B4 | A8 G8- | G8 z8 | z8 G8 | B4 A4 B6 c2 | d4 d4 z8 | z4 d4 d4 f4 | %16
w: mostr' e *|* ce- le-|bra- te:||Si|ve- de per- ch'~~in-|tor- no|tut- te le|
 e4 f4 d8 | c4 d4 d4 d4 | f4 f4 f8 | (f6 _e2 d4) c4- | c4 B4 A8 | G8 z4 d4 | c4 c4 d4 c4 | B8 A8 | %24
w: gen- ti~~an- ti-|che Si son' in|que- sta par-|te * * ra\-|* du- na-|te: Noi|che la nostr' e-|ta- te|
 z4 d4 d4 d4 | d4 d4 f8 | c8 B4 A4- | A4 G4 A8 | z4 A4 B4 c4 | d4 B4 A8 | A8 z8 | z4 c4 B4 A4 | %32
w: nei bo- chi~~et|nel- le sel-|ve con- su\-|* ma- te,|Ve- nut' an-|chor qui sia-|mo,|e noi pa-|
 G8 A8 | z4 f4 e4 d4 | d4 e4 d8 | e8 (f6 e2 | d2 c2 B2 A2) G8 | A8 (G2 A2 B2 c2 | d2 e2) f4 e4 d4 | %39
w: sto- ri,|Et giam can-|tan- do~~in- sie-|me~~i no\- *|* * * * stri~a-|mo- ri, * * *|* * Et giam can-|
 d4 e4 d8 | e8 (f6 e2 | d2 c2 B2 A2) G8 | A8 (G6 A2 | =B4 c8 B2 A2 | =B4 c8 B4 | c8) =B8 |] %46
w: tan- do~~in- sie-|me~~i no\- *|* * * * stri|a- mo\- *|||* ri.|
V:4
 z8 z8 | z8 G,8 | B,6 A,2 G,4 ^F,4 | G,8 D,8 | z8 z4 G,4 | D4 D4 C4 A,4 | B,8 A,4 D,4 | %7
w: |Quan-|to sia liet' il|gior- no,|nel|qual le co- se~an-|ti- che Son|
 G,4 G,4 F,4 F,4 | B,12 F,4 | (G,4 A,4) (F,4 G,4) | D,8 G,8- | G,8 z8 | G,8 B,6 A,2 | %13
w: hor da voi di-|mostr' e|ce\- * le\- *|bra- te:||Si ve- de|
 G,4 ^F,4 G,8 | D,8 z8 | z4 G,4 D4 D4 | C4 A,4 B,8 | A,4 D,4 G,4 G,4 | F,4 F,4 B,8- | %19
w: per- ch'~~in- tor-|no|tut- te le|gen- ti~~an- ti-|che Si son' in|que- sta par\-|
 B,4 F,4 (G,4 A,4) | (F,4 G,4) D,8 | G,8 z4 D,4 | F,4 F,4 F,4 F,4 | G,8 D,8 | z4 D,4 D,4 D,4 | %25
w: * te ra\- *|du\- * na-|te: Noi|che la nostr' e-|ta- te|nei bo- chi~~et|
 G,4 G,4 F,8 | F,8 G,4 D,4 | _E,8 D,8 | F,8 G,4 A,4 | D,4 E,4 F,8 | D,8 z8 | z4 A,4 G,4 F,4 | %32
w: nel- le sel-|ve con- su-|ma- te,|Ve- nut' an-|chor qui sia-|mo,|e noi pa-|
 _E,8 D,8 | z4 D,4 A,4 B,4 | G,4 A,4 D,4 (G,2 F,2 | E,2 D,2 C,4) (F,2 E,2 D,2 C,2 | %36
w: sto- ri,|Et giam can-|tan- do~~in- sie- me~~i *|* * * no\- * * *|
 B,,8) C,4 _E,4 | D,8 G,8 | z4 D,4 A,4 B,4 | G,4 A,4 D,4 (G,2 F,2 | E,2 D,2 C,4) (F,2 E,2 D,2 C,2 | %41
w: * stri a-|mo- ri,|Et giam can-|tan- do~~in- sie- me~~i *|* * * no\- * * *|
 B,,8 C,4 _E,4 | D,8 z4 (G,4- | G,4 C,4) G,8- | G,4 C,4 G,8 | C,8) G,8 |] %46
w: * stri~~a- mo-|ri, no\-|* * stri|* a- mo\-|* ri.|

